assets/img/components/alert-header.svg

<svg width="578" height="145" viewBox="0 0 578 145" fill="none" xmlns="http://www.w3.org/2000/svg">
<path d="M250.125 0C268.493 3.61134e-05 283.957 12.4194 288.585 29.3184V0C368.666 3.14599e-06 433.585 64.9187 433.585 145H0L145 0H250.125ZM45.6562 9C63.6745 9.00001 78.2812 23.6067 78.2812 41.625C78.2811 59.6431 63.6744 74.25 45.6562 74.25C27.6381 74.25 13.0314 59.6431 13.0312 41.625C13.0312 23.6067 27.6379 9 45.6562 9Z" fill="#286AD8"/>
<path d="M504.92 0C545.051 0 577.585 32.4594 577.585 72.5C577.585 112.541 545.051 145 504.92 145H432.585V0H504.92Z" fill="#286AD8"/>
<g style="mix-blend-mode:multiply" opacity="0.4">
<path d="M332.912 144.963L158.953 144.963L132.916 115.926C132.916 115.926 135.416 117.219 138.916 117.219L270.646 117.219C272.873 117.219 274.605 115.401 274.58 113.174L274.088 69.2504L273.922 68.4844L332.912 144.963Z" fill="#1545BB"/>
</g>
<path d="M271.686 67.5H135.594C133.722 67.5 132.205 69.2281 132.205 71.3597V113.817C132.205 115.948 133.722 117.677 135.594 117.677H271.686C273.558 117.677 275.075 115.948 275.075 113.817V71.3597C275.075 69.2281 273.558 67.5 271.686 67.5Z" fill="#5187DF"/>
<g style="mix-blend-mode:multiply" opacity="0.4">
<rect x="179.006" y="85.4634" width="70" height="5" rx="2.5" fill="#3360C7"/>
</g>
<g style="mix-blend-mode:multiply" opacity="0.4">
<path d="M179.006 97.7134C179.006 96.6088 179.901 95.7134 181.006 95.7134H226.006C227.11 95.7134 228.006 96.6088 228.006 97.7134C228.006 98.8179 227.11 99.7134 226.006 99.7134H181.006C179.901 99.7134 179.006 98.8179 179.006 97.7134Z" fill="#3360C7"/>
</g>
<path d="M136.205 67.5V117.677H135.594C133.722 117.677 132.205 115.948 132.205 113.816V71.3594C132.205 69.2279 133.722 67.5 135.594 67.5H136.205Z" fill="#004DD1"/>
<path d="M148.547 102.518C148.715 102.621 148.902 102.673 149.108 102.673H169.892C170.098 102.673 170.285 102.621 170.453 102.518C170.621 102.416 170.751 102.28 170.845 102.112C170.938 101.944 170.99 101.762 170.999 101.566C171.008 101.37 170.957 101.179 170.845 100.992L160.48 83.0641C160.368 82.8774 160.224 82.7373 160.046 82.644C159.869 82.5506 159.687 82.5039 159.5 82.5039C159.313 82.5039 159.131 82.5506 158.954 82.644C158.776 82.7373 158.632 82.8774 158.52 83.0641L148.155 100.992C148.043 101.179 147.992 101.37 148.001 101.566C148.01 101.762 148.062 101.944 148.155 102.112C148.249 102.28 148.379 102.416 148.547 102.518Z" fill="#3360C7"/>
</svg>

<svg xmlns="http://www.w3.org/2000/svg" width="578" height="145" fill="none" viewBox="0 0 578 145"><path fill="#286ad8" d="M250.125 0c18.368 0 33.832 12.42 38.46 29.318V0c80.081 0 145 64.919 145 145H0L145 0zM45.656 9c18.019 0 32.625 14.607 32.625 32.625S63.674 74.25 45.656 74.25 13.031 59.643 13.031 41.625 27.638 9 45.656 9"/><path fill="#286ad8" d="M504.92 0c40.131 0 72.665 32.46 72.665 72.5S545.051 145 504.92 145h-72.335V0z"/><path fill="#1545bb" d="M332.912 144.963H158.953l-26.037-29.037s2.5 1.293 6 1.293h131.73c2.227 0 3.959-1.818 3.934-4.045l-.492-43.924-.166-.766z" opacity=".4" style="mix-blend-mode:multiply"/><path fill="#5187df" d="M271.686 67.5H135.594c-1.872 0-3.389 1.728-3.389 3.86v42.457c0 2.131 1.517 3.86 3.389 3.86h136.092c1.872 0 3.389-1.729 3.389-3.86V71.36c0-2.132-1.517-3.86-3.389-3.86"/><rect width="70" height="5" x="179.006" y="85.463" fill="#3360c7" opacity=".4" rx="2.5" style="mix-blend-mode:multiply"/><path fill="#3360c7" d="M179.006 97.713a2 2 0 0 1 2-2h45a2 2 0 0 1 0 4h-45a2 2 0 0 1-2-2" opacity=".4" style="mix-blend-mode:multiply"/><path fill="#004dd1" d="M136.205 67.5v50.177h-.611c-1.872 0-3.389-1.729-3.389-3.861V71.359c0-2.131 1.517-3.859 3.389-3.859z"/><path fill="#3360c7" d="M148.547 102.518q.252.155.561.155h20.784q.309 0 .561-.155a1.1 1.1 0 0 0 .392-.406 1.2 1.2 0 0 0 .154-.546 1 1 0 0 0-.154-.574L160.48 83.064a1.1 1.1 0 0 0-.434-.42 1.16 1.16 0 0 0-.546-.14q-.28 0-.546.14a1.1 1.1 0 0 0-.434.42l-10.365 17.928a1 1 0 0 0-.154.574q.014.294.154.546t.392.406"/></svg>
